apex/img/win-icon.svg

<svg width="24" height="24" viewBox="0 0 24 24" fill="none" xmlns="http://www.w3.org/2000/svg">
<path d="M23.8094 2.97894L23.1833 2.35291V1.46741C23.1833 1.10797 22.892 0.81665 22.5326 0.81665H21.6471L21.0211 0.190613C20.8991 0.0684814 20.7336 0 20.5609 0C20.3882 0 20.2229 0.0684814 20.1008 0.190613L19.4747 0.81665H18.5892C18.2298 0.81665 17.9385 1.10815 17.9385 1.46759V2.35291L17.3124 2.97894C17.0583 3.23309 17.0583 3.64508 17.3124 3.89923L17.9385 4.52527V5.41077C17.9385 5.7702 18.23 6.06152 18.5894 6.06152H19.4747L20.1008 6.68756C20.2229 6.80951 20.3884 6.87817 20.5609 6.87817C20.7336 6.87817 20.8991 6.80969 21.0211 6.68756L21.6471 6.06152H22.5326C22.892 6.06152 23.1833 5.77002 23.1833 5.41077V4.52527L23.8094 3.89923C24.0635 3.64508 24.0635 3.23309 23.8094 2.97894Z" fill="white"/>
<path d="M12.7031 7.22552V5.9751C12.7031 5.58673 12.3884 5.27197 12 5.27197H4.46887C4.08051 5.27197 3.76575 5.58673 3.76575 5.9751V7.22552C5.10223 6.52313 6.62256 6.12506 8.23444 6.12506C9.84613 6.12506 11.3665 6.52313 12.7031 7.22552Z" fill="white"/>
<path d="M5.2218 12.7031C4.77905 12.7031 4.4187 13.0635 4.4187 13.5062C4.4187 13.9492 4.77905 14.3093 5.2218 14.3093C5.66473 14.3093 6.0249 13.9492 6.0249 13.5062C6.0249 13.0635 5.66473 12.7031 5.2218 12.7031Z" fill="white"/>
<path d="M8.23444 7.53131C3.69397 7.53131 0 11.2253 0 15.7656C0 20.306 3.69397 24 8.23444 24C12.7749 24 16.4689 20.306 16.4689 15.7656C16.4687 11.2253 12.7749 7.53131 8.23444 7.53131ZM5.2218 15.7156C4.0036 15.7156 3.01245 14.7244 3.01245 13.5062C3.01245 12.288 4.0036 11.2969 5.2218 11.2969C6.44019 11.2969 7.43115 12.288 7.43115 13.5062C7.43115 14.7244 6.44019 15.7156 5.2218 15.7156Z" fill="white"/>
<path d="M19.4901 7.98431C19.1164 8.52411 18.4929 8.87787 17.7867 8.87787C16.6428 8.87787 15.7156 7.95062 15.7156 6.80676V4.09222C15.7156 1.82849 13.8836 0 11.6235 0C9.44293 0 7.65564 1.71423 7.53772 3.86572H8.94781C9.06317 2.49023 10.2188 1.40625 11.6235 1.40625C13.1093 1.40625 14.3093 2.60889 14.3093 4.09222V6.80676C14.3093 8.72717 15.8663 10.2841 17.7867 10.2841C19.1931 10.2841 20.4038 9.44861 20.9515 8.24725C20.824 8.27161 20.6935 8.28442 20.5609 8.28442C20.1771 8.28442 19.8094 8.17969 19.4901 7.98431Z" fill="white"/>
</svg>

<svg width="24" height="24" fill="none" xmlns="http://www.w3.org/2000/svg"><path d="M23.81 2.979l-.627-.626v-.886a.65.65 0 00-.65-.65h-.886L21.021.19a.65.65 0 00-.92 0l-.626.626h-.886a.65.65 0 00-.65.65v.886l-.627.626a.65.65 0 000 .92l.627.626v.886c0 .36.291.65.65.65h.886l.626.627a.651.651 0 00.92 0l.626-.626h.886a.65.65 0 00.65-.651v-.886l.626-.626a.65.65 0 000-.92zM12.703 7.226v-1.25A.703.703 0 0012 5.271H4.469a.703.703 0 00-.703.703v1.25a9.578 9.578 0 014.468-1.1c1.612 0 3.133.398 4.47 1.1zm-7.481 5.477a.804.804 0 000 1.606.804.804 0 000-1.606z" fill="#fff"/><path d="M8.234 7.531C3.694 7.531 0 11.225 0 15.766 0 20.306 3.694 24 8.234 24s8.235-3.694 8.235-8.234S12.775 7.53 8.234 7.53zm-3.012 8.185a2.212 2.212 0 01-2.21-2.21c0-1.218.992-2.21 2.21-2.21s2.21.992 2.21 2.21-.992 2.21-2.21 2.21z" fill="#fff"/><path d="M19.49 7.984a2.071 2.071 0 01-3.775-1.178V4.093A4.09 4.09 0 0011.625 0a4.097 4.097 0 00-4.086 3.866h1.41a2.684 2.684 0 015.361.227v2.714a3.477 3.477 0 006.643 1.44 2.044 2.044 0 01-1.461-.263z" fill="#fff"/></svg>
